src/parts/eyes/Side.svg

<svg>
  <g transform="translate(76.000000, 82.000000)">
    <g
      id="Eyes/Side"
      transform="translate(0.000000, 8.000000)"
      opacity="0.599999964"
    >
      <path
        id="Eye"
        d="M27.2409577,20.3455337 C26.462715,21.3574913 26,22.6247092 26,24 C26,27.3137085 28.6862915,30 32,30 C35.3137085,30 38,27.3137085 38,24 C38,23.7097898 37.9793961,23.4243919 37.9395713,23.1451894 C37.9474218,22.9227843 37.9097825,22.6709538 37.8153518,22.4071242 C37.7703692,22.2814477 37.7221152,22.1572512 37.6706873,22.0345685 C37.3370199,21.0717264 36.7650456,20.2202109 36.0253277,19.550585 C33.898886,17.3173253 30.5064735,16 26.9975803,16 C22.1644225,16 18.006676,18.648508 16.1601674,22.4473116 C15.6201012,23.5583844 16.5467928,24.3002944 17.4375392,23.5716412 C19.8737584,21.5787519 23.2572061,20.3437884 26.9975803,20.3437884 C27.0788767,20.3437884 27.1600045,20.3443718 27.2409577,20.3455337 Z"
      />
      <path
        id="Eye"
        d="M85.2409577,20.3455337 C84.462715,21.3574913 84,22.6247092 84,24 C84,27.3137085 86.6862915,30 90,30 C93.3137085,30 96,27.3137085 96,24 C96,23.7097898 95.9793961,23.4243919 95.9395713,23.1451894 C95.9474218,22.9227843 95.9097825,22.6709538 95.8153518,22.4071242 C95.7703692,22.2814477 95.7221152,22.1572512 95.6706873,22.0345685 C95.3370199,21.0717264 94.7650456,20.2202109 94.0253277,19.550585 C91.898886,17.3173253 88.5064735,16 84.9975803,16 C80.1644225,16 76.006676,18.648508 74.1601674,22.4473116 C73.6201012,23.5583844 74.5467928,24.3002944 75.4375392,23.5716412 C77.8737584,21.5787519 81.2572061,20.3437884 84.9975803,20.3437884 C85.0788767,20.3437884 85.1600045,20.3443718 85.2409577,20.3455337 Z"
      />
    </g>
  </g>
</svg>

<svg>
  <g transform="translate(76 82)">
    <g id="Eyes/Side" opacity=".6" transform="translate(0 8)">
      <path id="Eye" d="M27.241 20.346a6 6 0 1 0 10.699 2.8 1.998 1.998 0 0 0-.125-.739 7.509 7.509 0 0 0-.144-.372 6.007 6.007 0 0 0-1.646-2.484C33.9 17.317 30.506 16 26.998 16c-4.834 0-8.991 2.649-10.838 6.447-.54 1.111.387 1.853 1.278 1.125 2.436-1.993 5.82-3.228 9.56-3.228.08 0 .162 0 .243.002Zm58 0a6 6 0 1 0 10.699 2.8 1.998 1.998 0 0 0-.125-.739 7.509 7.509 0 0 0-.144-.372 6.007 6.007 0 0 0-1.646-2.484C91.9 17.317 88.506 16 84.998 16c-4.834 0-8.991 2.649-10.838 6.447-.54 1.111.387 1.853 1.278 1.125 2.436-1.993 5.82-3.228 9.56-3.228.08 0 .162 0 .243.002Z"/>
    </g>
  </g>
</svg>
